build/img/facebook.svg

<svg width="17" height="17" viewBox="0 0 17 17" fill="none" xmlns="http://www.w3.org/2000/svg">
<path fill-rule="evenodd" clip-rule="evenodd" d="M0.945312 8.24307C0.945312 12.0848 3.7355 15.2794 7.38471 15.9272V10.3462H5.45289V8.19993H7.38471V6.48254C7.38471 4.55072 8.62944 3.47792 10.39 3.47792C10.9476 3.47792 11.5491 3.56357 12.1067 3.64921V5.62417H11.1196C10.1749 5.62417 9.96047 6.09618 9.96047 6.69762V8.19993H12.0211L11.6779 10.3462H9.96047V15.9272C13.6097 15.2794 16.3999 12.0855 16.3999 8.24307C16.3999 3.96925 12.9226 0.472656 8.67259 0.472656C4.42259 0.472656 0.945312 3.96925 0.945312 8.24307Z" fill="#36373C"/>
</svg>

<svg width="17" height="17" fill="none" xmlns="http://www.w3.org/2000/svg"><path fill-rule="evenodd" clip-rule="evenodd" d="M.945 8.243c0 3.842 2.79 7.036 6.44 7.684v-5.58H5.453V8.2h1.932V6.483c0-1.932 1.244-3.005 3.005-3.005.558 0 1.16.086 1.717.171v1.975h-.987c-.945 0-1.16.472-1.16 1.074V8.2h2.061l-.343 2.146H9.96v5.581c3.65-.648 6.44-3.841 6.44-7.684 0-4.274-3.477-7.77-7.727-7.77S.945 3.969.945 8.243Z" fill="#36373C"/></svg>
